images/main/services-sale.svg

<svg width="86" height="78" fill="none" xmlns="http://www.w3.org/2000/svg"><path d="M80.111 14.0278h-3.3447l.0033-5.9794c.0019-4.0144-3.2619-7.282-7.2769-7.284L44.108.75h-.0032c-1.4449 0-2.8037.5626-3.8257 1.5846L2.3821 40.2315C1.0071 41.6066.25 43.4346.25 45.3795c0 1.9448.757 3.7728 2.1321 5.1479L26.976 75.1211c1.4194 1.4195 3.284 2.1289 5.1479 2.1289 1.8646 0 3.7291-.7094 5.1486-2.1289L61.1326 51.261c.6526-.6527.6526-1.7106 0-2.3626-.6527-.6526-1.7106-.6526-2.3632 0L34.9092 72.7586c-1.5356 1.5356-4.0345 1.5356-5.5702 0L4.7453 48.1649c-.744-.744-1.1538-1.7334-1.1538-2.7854 0-1.0521.4098-2.0415 1.1538-2.7855L42.6416 4.6978a2.0555 2.0555 0 0 1 1.4632-.6063h.0013l25.3847.0143c2.1719.0007 3.9386 1.7693 3.9373 3.9413l-.0078 14.0002h-7.5255c-.6481 0-1.2348-.265-1.659-.6918a6.1298 6.1298 0 0 0 1.924-1.302c2.401-2.4017 2.401-6.3083 0-8.7094-2.4017-2.4016-6.3084-2.4016-8.71 0-2.4011 2.4011-2.4011 6.3077 0 8.7094.8902.8902 1.9879 1.4495 3.1385 1.6799.8177 2.1347 2.8872 3.6553 5.3065 3.6553h7.5235l-.0045 8.0091a2.0516 2.0516 0 0 1-.6063 1.4619l-4.5867 4.5874c-.6527.6526-.6527 1.7105 0 2.3631.652.652 1.7099.652 2.3625 0l4.5873-4.5873c1.0207-1.0214 1.584-2.3789 1.5846-3.8231l.0046-8.0111h3.3512c3.132 0 5.6805-2.5478 5.6805-5.6804 0-3.132-2.5485-5.6805-5.6805-5.6805Zm-20.2981-.3211c.5496-.5495 1.2707-.8237 1.9925-.8237.7212 0 1.4423.2748 1.9918.8237.1736.1742.3172.3667.436.5697-1.8339.5619-3.2749 2.0297-3.8016 3.8792a2.8003 2.8003 0 0 1-.6187-.4646c-1.0983-1.0991-1.0983-2.886 0-3.9843Zm20.2981 8.3406h-3.3493l.0027-4.6781h3.3466c1.2896 0 2.3391 1.0495 2.3391 2.3391 0 1.2895-1.0495 2.339-2.3391 2.339Z" fill="#CA2C37"/><path d="M27.2179 42.9034c.2056.7394.8772 1.223 1.6081 1.223.1488 0 .2996-.0196.449-.0613l17.1511-4.774c.8889-.2474 1.4091-1.1689 1.1617-2.0578-.2473-.8882-1.1682-1.4083-2.0577-1.161L28.379 40.8457c-.8883.248-1.4084 1.1688-1.1611 2.0577ZM34.7676 45.1079c-.9307.9307-1.443 2.1674-1.443 3.4838 0 1.3157.5123 2.5524 1.443 3.4831.9607.96 2.2215 1.4403 3.4831 1.4403 1.2615 0 2.523-.4803 3.4837-1.4403 1.9207-1.9207 1.9207-5.0462 0-6.9669s-5.0461-1.9207-6.9668 0Zm4.6036 4.6037c-.618.618-1.6231.618-2.2411 0-.2996-.2989-.464-.697-.464-1.1206 0-.4229.1651-.821.464-1.1205a1.5824 1.5824 0 0 1 1.1206-.4634 1.58 1.58 0 0 1 1.1205.4634c.6181.618.6181 1.6237 0 2.2411ZM42.562 35.1606c1.9207-1.9214 1.9207-5.0462 0-6.9668-.9306-.9307-2.168-1.443-3.4837-1.443-1.3157 0-2.5531.5123-3.4831 1.443-1.9207 1.9206-1.9207 5.0454 0 6.9668.9607.96 2.2216 1.4403 3.4831 1.4403 1.2615 0 2.5231-.4803 3.4837-1.4403Zm-4.6043-4.6043a1.5743 1.5743 0 0 1 1.1206-.464c.4236 0 .8217.1644 1.1206.464.618.618.618 1.6231 0 2.2411-.6174.6181-1.6231.6181-2.2412 0-.6174-.618-.6174-1.6231 0-2.2411Z" fill="#CA2C37"/><path d="M16.8673 39.451c-.6526-.6526-1.7105-.6526-2.3631 0l-4.7473 4.7472a1.6705 1.6705 0 0 0 0 2.3625l21.1864 21.1864a1.6662 1.6662 0 0 0 1.1812.4888c.4275 0 .855-.1632 1.1813-.4888l31.676-31.6767c.6527-.6527.6527-1.7106 0-2.3632L43.7962 12.5215a1.6712 1.6712 0 0 0-1.1813-.4895c-.4431 0-.868.1763-1.1813.4895L23.9555 29.9996c-.6526.6526-.6526 1.7105 0 2.3632.652.652 1.7099.652 2.3626 0l16.2968-16.2969 18.8232 18.8232-29.3136 29.3135-18.8231-18.8231 3.5659-3.566c.652-.6526.6527-1.7099 0-2.3625ZM64.677 43.6833c-.4399 0-.8706.1788-1.1813.4895a1.684 1.684 0 0 0-.4894 1.1812c0 .4392.1788.8706.4894 1.1813a1.6833 1.6833 0 0 0 1.1813.4895c.4392 0 .8699-.1789 1.1813-.4895a1.6844 1.6844 0 0 0 .4894-1.1813 1.684 1.684 0 0 0-.4894-1.1812c-.3114-.3107-.7421-.4895-1.1813-.4895Z" fill="#CA2C37"/><path d="M21.5916 37.0872a1.6731 1.6731 0 0 0 .4902-1.1813c0-.4392-.1776-.8686-.4902-1.1813a1.6801 1.6801 0 0 0-1.1806-.4894 1.683 1.683 0 0 0-1.1812.4894c-.3113.3107-.4895.7421-.4895 1.1813 0 .4412.1782.8706.4895 1.1813a1.6767 1.6767 0 0 0 1.1812.4894c.4406 0 .87-.1768 1.1806-.4894Z" fill="#CA2C37"/></svg>

<svg width="86" height="78" viewBox="0 0 86 78" fill="none" xmlns="http://www.w3.org/2000/svg">
<path d="M80.111 14.0278H76.7663L76.7696 8.04836C76.7715 4.03403 73.5077 0.766316 69.4927 0.764358L44.108 0.75C44.1067 0.75 44.1061 0.75 44.1048 0.75C42.6599 0.75 41.3011 1.31257 40.2791 2.33459L2.38214 40.2315C1.00705 41.6066 0.25 43.4346 0.25 45.3795C0.25 47.3243 1.00705 49.1523 2.38214 50.5274L26.9759 75.1211C28.3953 76.5406 30.2599 77.25 32.1238 77.25C33.9884 77.25 35.8529 76.5406 37.2724 75.1211L61.1326 51.261C61.7852 50.6083 61.7852 49.5504 61.1326 48.8984C60.4799 48.2458 59.422 48.2458 58.7694 48.8984L34.9092 72.7586C33.3736 74.2942 30.8747 74.2942 29.339 72.7586L4.74532 48.1649C4.00132 47.4209 3.59147 46.4315 3.59147 45.3795C3.59147 44.3274 4.00132 43.338 4.74532 42.594L42.6416 4.69776C43.0325 4.30683 43.552 4.09147 44.1048 4.09147H44.1061L69.4908 4.10582C71.6627 4.10648 73.4294 5.8751 73.4281 8.04706L73.4203 22.0473H65.8948C65.2467 22.0473 64.66 21.7823 64.2358 21.3555C64.9348 21.0559 65.59 20.6232 66.1598 20.0535C68.5608 17.6518 68.5608 13.7452 66.1598 11.3441C63.7581 8.94247 59.8514 8.94247 57.4498 11.3441C55.0487 13.7452 55.0487 17.6518 57.4498 20.0535C58.34 20.9437 59.4377 21.503 60.5883 21.7334C61.406 23.8681 63.4755 25.3887 65.8948 25.3887H73.4183L73.4138 33.3978C73.4138 33.9506 73.1984 34.4694 72.8075 34.8597L68.2208 39.4471C67.5681 40.0997 67.5681 41.1576 68.2208 41.8102C68.8728 42.4622 69.9307 42.4622 70.5833 41.8102L75.1706 37.2229C76.1913 36.2015 76.7546 34.844 76.7552 33.3998L76.7598 25.3887H80.111C83.243 25.3887 85.7915 22.8409 85.7915 19.7083C85.7915 16.5763 83.243 14.0278 80.111 14.0278V14.0278ZM59.8129 13.7067C60.3625 13.1572 61.0836 12.883 61.8054 12.883C62.5266 12.883 63.2477 13.1578 63.7972 13.7067C63.9708 13.8809 64.1144 14.0734 64.2332 14.2764C62.3993 14.8383 60.9583 16.3061 60.4316 18.1556C60.2104 18.0323 60.0009 17.8789 59.8129 17.691C58.7146 16.5919 58.7146 14.805 59.8129 13.7067V13.7067ZM80.111 22.0473H76.7617L76.7644 17.3692H80.111C81.4006 17.3692 82.4501 18.4187 82.4501 19.7083C82.4501 20.9978 81.4006 22.0473 80.111 22.0473Z" fill="#CA2C37"/>
<path d="M27.2179 42.9034C27.4235 43.6428 28.0951 44.1264 28.826 44.1264C28.9748 44.1264 29.1256 44.1068 29.275 44.0651L46.4261 39.2911C47.315 39.0437 47.8352 38.1222 47.5878 37.2333C47.3405 36.3451 46.4196 35.825 45.5301 36.0723L28.379 40.8457C27.4907 41.0937 26.9706 42.0145 27.2179 42.9034V42.9034Z" fill="#CA2C37"/>
<path d="M34.7676 45.1079C33.8369 46.0386 33.3246 47.2753 33.3246 48.5917C33.3246 49.9074 33.8369 51.1441 34.7676 52.0748C35.7283 53.0348 36.9891 53.5151 38.2507 53.5151C39.5122 53.5151 40.7737 53.0348 41.7344 52.0748C43.6551 50.1541 43.6551 47.0286 41.7344 45.1079C39.8137 43.1872 36.6883 43.1872 34.7676 45.1079ZM39.3712 49.7116C38.7532 50.3296 37.7481 50.3296 37.1301 49.7116C36.8305 49.4127 36.6661 49.0146 36.6661 48.591C36.6661 48.1681 36.8312 47.77 37.1301 47.4705C37.4394 47.1618 37.8454 47.0071 38.2507 47.0071C38.6566 47.0071 39.0625 47.1618 39.3712 47.4705C39.9893 48.0885 39.9893 49.0942 39.3712 49.7116Z" fill="#CA2C37"/>
<path d="M42.562 35.1606C44.4827 33.2392 44.4827 30.1144 42.562 28.1938C41.6314 27.2631 40.394 26.7508 39.0783 26.7508C37.7626 26.7508 36.5252 27.2631 35.5952 28.1938C33.6745 30.1144 33.6745 33.2392 35.5952 35.1606C36.5559 36.1206 37.8168 36.6009 39.0783 36.6009C40.3398 36.6009 41.6014 36.1206 42.562 35.1606ZM37.9577 30.5563C38.2573 30.2567 38.6554 30.0923 39.0783 30.0923C39.5019 30.0923 39.9 30.2567 40.1989 30.5563C40.8169 31.1743 40.8169 32.1794 40.1989 32.7974C39.5815 33.4155 38.5758 33.4155 37.9577 32.7974C37.3403 32.1794 37.3403 31.1743 37.9577 30.5563Z" fill="#CA2C37"/>
<path d="M16.8673 39.451C16.2147 38.7984 15.1568 38.7984 14.5042 39.451L9.75693 44.1982C9.44367 44.5115 9.26746 44.9363 9.26746 45.3795C9.26746 45.8226 9.44367 46.2475 9.75693 46.5607L30.9433 67.7471C31.2689 68.0727 31.697 68.2359 32.1245 68.2359C32.552 68.2359 32.9795 68.0727 33.3058 67.7471L64.9818 36.0704C65.6345 35.4177 65.6345 34.3598 64.9818 33.7072L43.7962 12.5215C43.4829 12.2083 43.058 12.032 42.6149 12.032C42.1718 12.032 41.7469 12.2083 41.4336 12.5215L23.9555 29.9996C23.3029 30.6522 23.3029 31.7101 23.9555 32.3628C24.6075 33.0148 25.6654 33.0148 26.3181 32.3628L42.6149 16.0659L61.4381 34.8891L32.1245 64.2026L13.3014 45.3795L16.8673 41.8135C17.5193 41.1609 17.52 40.1036 16.8673 39.451V39.451Z" fill="#CA2C37"/>
<path d="M64.677 43.6833C64.2371 43.6833 63.8064 43.8621 63.4957 44.1728C63.1851 44.4834 63.0063 44.9148 63.0063 45.354C63.0063 45.7932 63.1851 46.2246 63.4957 46.5353C63.8064 46.8459 64.2371 47.0248 64.677 47.0248C65.1162 47.0248 65.5469 46.8459 65.8583 46.5353C66.1689 46.2246 66.3477 45.7932 66.3477 45.354C66.3477 44.9148 66.1689 44.4834 65.8583 44.1728C65.5469 43.8621 65.1162 43.6833 64.677 43.6833Z" fill="#CA2C37"/>
<path d="M21.5916 37.0872C21.9042 36.7765 22.0818 36.3471 22.0818 35.9059C22.0818 35.4667 21.9042 35.0373 21.5916 34.7246C21.281 34.414 20.8516 34.2352 20.411 34.2352C19.9712 34.2352 19.5404 34.414 19.2298 34.7246C18.9185 35.0353 18.7403 35.4667 18.7403 35.9059C18.7403 36.3471 18.9185 36.7765 19.2298 37.0872C19.5417 37.3998 19.9712 37.5766 20.411 37.5766C20.8516 37.5766 21.281 37.3998 21.5916 37.0872Z" fill="#CA2C37"/>
</svg>
